developPresets/cali_rocks_001.lrtemplate
s = {
	id = "2460EBF2-16D1-41C2-A54D-F9FB2E76D703",
	internalName = "cali_rocks_001",
	title = "cali_rocks_001",
	type = "Develop",
	value = {
		settings = {
			BlueHue = 0,
			BlueSaturation = 0,
			CameraProfile = "Camera Portrait",
			Clarity2012 = 11,
			ConvertToGrayscale = false,
			EnableCalibration = true,
			EnableColorAdjustments = true,
			EnableDetail = true,
			GreenHue = 0,
			GreenSaturation = 0,
			HueAdjustmentAqua = 0,
			HueAdjustmentBlue = 0,
			HueAdjustmentGreen = 0,
			HueAdjustmentMagenta = 0,
			HueAdjustmentOrange = 0,
			HueAdjustmentPurple = 0,
			HueAdjustmentRed = 0,
			HueAdjustmentYellow = 0,
			LuminanceAdjustmentAqua = 0,
			LuminanceAdjustmentBlue = 0,
			LuminanceAdjustmentGreen = 0,
			LuminanceAdjustmentMagenta = 0,
			LuminanceAdjustmentOrange = 0,
			LuminanceAdjustmentPurple = 0,
			LuminanceAdjustmentRed = 0,
			LuminanceAdjustmentYellow = 0,
			ParametricDarks = 0,
			ParametricHighlightSplit = 75,
			ParametricHighlights = 0,
			ParametricLights = 0,
			ParametricMidtoneSplit = 50,
			ParametricShadowSplit = 25,
			ParametricShadows = 0,
			ProcessVersion = "6.7",
			RedHue = 0,
			RedSaturation = 0,
			Saturation = -5,
			SaturationAdjustmentAqua = 0,
			SaturationAdjustmentBlue = 40,
			SaturationAdjustmentGreen = 0,
			SaturationAdjustmentMagenta = 0,
			SaturationAdjustmentOrange = -10,
			SaturationAdjustmentPurple = 0,
			SaturationAdjustmentRed = -5,
			SaturationAdjustmentYellow = 15,
			ShadowTint = 0,
			SharpenDetail = 25,
			SharpenEdgeMasking = 0,
			SharpenRadius = 1,
			Sharpness = 25,
			ToneCurveName2012 = "Custom",
			ToneCurvePV2012 = {
				0,
				3,
				32,
				29,
				107,
				116,
				255,
				255,
			},
			ToneCurvePV2012Blue = {
				0,
				12,
				127,
				127,
				255,
				255,
			},
			ToneCurvePV2012Green = {
				0,
				0,
				36,
				33,
				127,
				129,
				255,
				255,
			},
			ToneCurvePV2012Red = {
				9,
				0,
				106,
				106,
				255,
				255,
			},
			Vibrance = 0,
		},
		uuid = "E5580428-DDCF-4993-BD23-63AF38964D61",
	},
	version = 0,
}
