developPresets/usa_sanFranhipsto_01.lrtemplate
s = {
	id = "71024731-2DC8-498D-ACAF-CD0E761137EF",
	internalName = "usa_sanFranhipsto_01",
	title = "usa_sanFranhipsto_01",
	type = "Develop",
	value = {
		settings = {
			AutoLateralCA = 1,
			BlueHue = 0,
			BlueSaturation = 0,
			CameraProfile = "Camera Standard",
			ChromaticAberrationB = 0,
			ChromaticAberrationR = 0,
			Clarity2012 = 0,
			ConvertToGrayscale = false,
			Defringe = 0,
			DefringeGreenAmount = 0,
			DefringeGreenHueHi = 60,
			DefringeGreenHueLo = 40,
			DefringePurpleAmount = 0,
			DefringePurpleHueHi = 70,
			DefringePurpleHueLo = 30,
			Dehaze = 0,
			EnableCalibration = true,
			EnableColorAdjustments = true,
			EnableEffects = true,
			EnableLensCorrections = true,
			EnableSplitToning = true,
			GrainAmount = 0,
			GrainFrequency = 50,
			GrainSize = 25,
			GreenHue = 0,
			GreenSaturation = 0,
			HueAdjustmentAqua = -2,
			HueAdjustmentBlue = -2,
			HueAdjustmentGreen = 0,
			HueAdjustmentMagenta = 16,
			HueAdjustmentOrange = -16,
			HueAdjustmentPurple = 20,
			HueAdjustmentRed = 14,
			HueAdjustmentYellow = 0,
			LuminanceAdjustmentAqua = 3,
			LuminanceAdjustmentBlue = 9,
			LuminanceAdjustmentGreen = -15,
			LuminanceAdjustmentMagenta = 0,
			LuminanceAdjustmentOrange = 0,
			LuminanceAdjustmentPurple = 0,
			LuminanceAdjustmentRed = 0,
			LuminanceAdjustmentYellow = -3,
			ParametricDarks = 0,
			ParametricHighlightSplit = 75,
			ParametricHighlights = 0,
			ParametricLights = 0,
			ParametricMidtoneSplit = 50,
			ParametricShadowSplit = 25,
			ParametricShadows = 0,
			PostCropVignetteAmount = 0,
			PostCropVignetteFeather = 50,
			PostCropVignetteHighlightContrast = 0,
			PostCropVignetteMidpoint = 50,
			PostCropVignetteRoundness = 0,
			PostCropVignetteStyle = 1,
			ProcessVersion = "6.7",
			RedHue = 0,
			RedSaturation = 0,
			Saturation = 5,
			SaturationAdjustmentAqua = 6,
			SaturationAdjustmentBlue = 22,
			SaturationAdjustmentGreen = 31,
			SaturationAdjustmentMagenta = 0,
			SaturationAdjustmentOrange = 12,
			SaturationAdjustmentPurple = 0,
			SaturationAdjustmentRed = 14,
			SaturationAdjustmentYellow = 10,
			ShadowTint = 0,
			SplitToningBalance = 0,
			SplitToningHighlightHue = 50,
			SplitToningHighlightSaturation = 3,
			SplitToningShadowHue = 130,
			SplitToningShadowSaturation = 5,
			ToneCurveName2012 = "Custom",
			ToneCurvePV2012 = {
				0,
				0,
				36,
				26,
				142,
				144,
				255,
				255,
			},
			ToneCurvePV2012Blue = {
				0,
				16,
				33,
				42,
				162,
				171,
				255,
				255,
			},
			ToneCurvePV2012Green = {
				0,
				10,
				45,
				44,
				179,
				185,
				255,
				255,
			},
			ToneCurvePV2012Red = {
				0,
				15,
				37,
				39,
				120,
				122,
				255,
				255,
			},
			Vibrance = 10,
			VignetteAmount = 0,
			VignetteMidpoint = 50,
		},
		uuid = "6E0E9EC1-24A8-4FBF-AE7C-C088EF146406",
	},
	version = 0,
}
