Legacy/Develop Presets/user_basic/curve_deepContrast_01.lrtemplate
s = {
	id = "DB274DE1-BC0D-4A44-8BBA-DAA7DF92FD1F",
	internalName = "curve_deepContrast_01",
	title = "curve_deepContrast_01",
	type = "Develop",
	value = {
		settings = {
			ParametricDarks = 0,
			ParametricHighlightSplit = 75,
			ParametricHighlights = 0,
			ParametricLights = 0,
			ParametricMidtoneSplit = 50,
			ParametricShadowSplit = 25,
			ParametricShadows = 0,
			ProcessVersion = "6.7",
			ToneCurveName2012 = "Custom",
			ToneCurvePV2012 = {
				0,
				12,
				28,
				24,
				86,
				90,
				255,
				255,
			},
			ToneCurvePV2012Blue = {
				0,
				0,
				255,
				255,
			},
			ToneCurvePV2012Green = {
				0,
				0,
				255,
				255,
			},
			ToneCurvePV2012Red = {
				0,
				0,
				255,
				255,
			},
		},
		uuid = "55AC82AF-20FE-4CDB-A4B3-511551407494",
	},
	version = 0,
}
